src/icons/src/questionmark.svg

<svg height="32" viewBox="0 0 32 32" width="32" xmlns="http://www.w3.org/2000/svg"><path d="m10 20a10 10 0 1 1 10-10 10.011 10.011 0 0 1 -10 10zm0-18a8 8 0 1 0 8 8 8.009 8.009 0 0 0 -8-8zm1 14h-2v-2h2zm0-3h-2a3.583 3.583 0 0 1 1.77-3.178c.66-.506 1.23-.943 1.23-1.822a2 2 0 1 0 -4 0h-2a4 4 0 1 1 8 0 3.413 3.413 0 0 1 -1.56 2.645 3.1 3.1 0 0 0 -1.44 2.355z" fill="#46aca6" fill-rule="evenodd" transform="translate(5 5.75)"/></svg>

<?xml version="1.0" encoding="UTF-8"?>
<svg width="32px" height="32px" viewBox="0 0 32 32" version="1.1" xmlns="http://www.w3.org/2000/svg" xmlns:xlink="http://www.w3.org/1999/xlink">
    <!-- Generator: Sketch 40.1 (33804) - http://www.bohemiancoding.com/sketch -->
    <title>questionmark</title>
    <desc>Created with Sketch.</desc>
    <defs></defs>
    <g id="Page-1" stroke="none" stroke-width="1" fill="none" fill-rule="evenodd">
        <g id="preferences" fill="#000000">
            <g id="Page-1" transform="translate(0.000000, 0.750000)">
                <path id="Shape" d="M10,20A10,10,0,1,1,20,10,10.011,10.011,0,0,1,10,20ZM10,2a8,8,0,1,0,8,8A8.009,8.009,0,0,0,10,2Zm1,14H9V14h2v2Zm0-3H9a3.583,3.583,0,0,1,1.77-3.178C11.43,9.316,12,8.879,12,8A2,2,0,1,0,8,8H6a4,4,0,1,1,8,0,3.413,3.413,0,0,1-1.56,2.645A3.1,3.1,0,0,0,11,13Z" transform="translate(5 5)" fill="#46aca6"/>
            </g>
        </g>
    </g>
</svg>
